X: 33352
T: Queen Of Rangoon, The
R: reel
M: 4/4
K: Bminor
|:B2 ef dB~B2|e3B dB~B2|edBA EFED|EFAB edB2|
B2 ef dB~B2|e3B dB~B2|edBA EFED|1 EFAF B2A2:|2 EFAF B2Bc||
|:dBGFG2{B}cd|eAAGA2AG|FBBAB2Bd|cBBd cBBc|
dBGFG2{B}cd|eAAGA2AG|FBBAB2Bd|1 cBAc B3c:|2 cBAc B3A||

